carriers/postCz.svg

<svg width="128" height="64" viewBox="0 0 128 64" fill="none" xmlns="http://www.w3.org/2000/svg">
<rect width="128" height="64" rx="6" fill="white"/>
<path fill-rule="evenodd" clip-rule="evenodd" d="M6.53891 25.0643C6.39663 25.0643 6.26012 25.1205 6.15916 25.2208C6.0582 25.321 6.00099 25.4572 6 25.5994C6.13937 29.3105 7.64981 32.8382 10.2393 35.5002C12.8287 38.1622 16.3133 39.7696 20.0191 40.0115C20.3559 40.0339 20.6927 40.0115 21.0333 40.0115C22.1265 39.9876 23.214 39.8483 24.278 39.5961C25.913 39.2384 27.376 38.3313 28.4234 37.0259C29.4707 35.7204 30.0391 34.0955 30.0338 32.4219C30.0395 32.1806 30.0282 31.9393 30.0001 31.6996C29.8245 29.9908 29.0595 28.3965 27.8365 27.1903C26.6134 25.9841 25.0086 25.2414 23.2976 25.0895C21.5865 24.9377 19.876 25.3862 18.4596 26.3582C17.0433 27.3301 16.0095 28.7648 15.5357 30.4159C15.837 31.4642 16.3663 32.4328 17.0857 33.2525C17.8052 34.0723 18.697 34.7228 19.6972 35.1576C19.0603 34.4793 18.6766 33.6021 18.6109 32.6739C18.5451 31.7457 18.8014 30.8233 19.3364 30.062C19.8715 29.3007 20.6526 28.7471 21.5482 28.4945C22.4438 28.2419 23.399 28.3058 24.253 28.6754C25.107 29.0449 25.8075 29.6975 26.2364 30.5233C26.6653 31.349 26.7965 32.2974 26.6078 33.2086C26.4191 34.1198 25.9221 34.938 25.2005 35.5255C24.4788 36.113 23.5768 36.4337 22.6463 36.4337C21.0949 36.4359 19.5759 35.9904 18.2715 35.1507C16.9671 34.3109 15.9327 33.1126 15.2924 31.6996C15.1044 31.2844 14.9529 30.8536 14.8396 30.4122C14.4339 28.8422 14.5148 27.186 15.0716 25.6631L15.1165 25.5433V25.4647C15.1165 25.3585 15.0743 25.2567 14.9992 25.1816C14.9241 25.1065 14.8223 25.0643 14.7161 25.0643H6.53891Z" fill="#FFCD33"/>
<path fill-rule="evenodd" clip-rule="evenodd" d="M33.6941 25.4684C33.9493 26.4266 34.0751 27.4146 34.0683 28.4062C34.0697 30.0411 33.7173 31.657 33.0351 33.1428C32.3529 34.6286 31.3572 35.9492 30.1163 37.0138C29.4529 37.5621 28.7386 38.0458 27.9832 38.4583C28.8392 37.7032 29.5243 36.7741 29.9929 35.7332C30.4614 34.6922 30.7025 33.5633 30.7001 32.4218C30.7018 31.7438 30.6163 31.0684 30.4457 30.4121C30.6163 29.7572 30.7018 29.083 30.7001 28.4062C30.7002 27.4464 30.5278 26.4945 30.1912 25.5956C30.1759 25.5537 30.1683 25.5093 30.1687 25.4647C30.1707 25.3584 30.214 25.2571 30.2895 25.1823C30.365 25.1076 30.4667 25.0652 30.5729 25.0642H33.1514C33.274 25.0615 33.3939 25.0998 33.4922 25.173C33.5906 25.2462 33.6616 25.3502 33.6941 25.4684Z" fill="#FFCD33"/>
<path d="M38.4392 33.1516C38.4392 36.6358 40.4938 38.5968 43.7123 38.5968C44.9806 38.6454 46.2302 38.2788 47.2713 37.5527V35.6216H46.2272C45.9261 35.9326 45.5629 36.1767 45.1611 36.3379C44.7594 36.4991 44.3282 36.5738 43.8957 36.5572C42.2864 36.5572 41.4444 35.5131 41.4444 33.0618C41.4444 30.7939 42.4099 29.6936 44.0341 29.6936C44.7671 29.66 45.4855 29.9061 46.0438 30.3822H47.1665V28.3538C46.1851 27.8074 45.0698 27.548 43.948 27.6053C40.636 27.6053 38.428 29.6562 38.428 33.1666M45.8642 25.6817L44.4533 27.2161H42.5821L41.2348 25.6817V25.0717H42.7318L43.5888 25.6555L44.4346 25.0717H45.8604V25.6555" fill="#1F357A"/>
<path d="M50.5346 35.0228C50.6544 36.3888 51.2831 36.7443 52.4058 36.7443C53.1367 36.7665 53.8559 36.5569 54.4604 36.1455H55.3174V37.7885C54.2982 38.3569 53.1414 38.6315 51.9754 38.5819C49.1724 38.5819 47.7166 37.0213 47.7166 34.4652C47.7166 31.9091 49.4006 30.2475 51.8332 30.2475C54.3444 30.2475 55.6318 31.5835 55.6318 34.3118C55.6318 34.6336 55.6018 34.9255 55.6018 35.0153L50.5346 35.0228ZM50.5346 33.582H53.0495C53.0046 32.3395 52.5892 31.9428 51.8557 31.9428C51.2269 31.9428 50.688 32.2647 50.5346 33.582Z" fill="#1F357A"/>
<path d="M56.3506 37.9195V36.1119H57.2712C57.8058 36.5239 58.4679 36.7358 59.1424 36.7107C59.8909 36.7107 60.3362 36.5423 60.3362 36.1268C60.3362 35.7114 60.063 35.558 58.9441 35.4083C57.2263 35.1912 56.2607 34.5962 56.2607 32.9084C56.2607 31.1457 57.6417 30.2887 59.6626 30.2887C60.6025 30.2514 61.5382 30.4346 62.3946 30.8238V32.6015H61.5188C60.9879 32.2657 60.3692 32.0951 59.7412 32.1112C58.9927 32.1112 58.6821 32.3096 58.6821 32.6913C58.6821 33.073 59.0339 33.2003 60.063 33.32C61.9342 33.5521 62.8511 34.1172 62.8511 35.8387C62.8511 37.5602 61.7284 38.5781 59.2509 38.5781C58.2401 38.6158 57.2365 38.3942 56.3356 37.9344" fill="#1F357A"/>
<path d="M66.3688 33.3762L68.8724 30.3823H71.174V31.0447L68.951 33.5708L71.4921 37.7997V38.4584H68.9024L67.0312 35.3148L66.3725 36.0371V38.4584H63.6106V27.7252H65.3583C66.2041 27.7252 66.3725 27.9422 66.3725 29.166V33.3762" fill="#1F357A"/>
<path d="M76.5596 37.6911C75.9945 38.3199 75.2423 38.5631 74.2468 38.5631C72.821 38.5631 71.687 37.7548 71.687 36.1568C71.687 34.4577 72.9894 33.6456 74.8606 33.6456C75.3797 33.6423 75.8978 33.6937 76.4062 33.799V33.2452C76.4062 32.5416 76.032 32.2197 75.044 32.2197C74.3667 32.2072 73.7006 32.3933 73.1278 32.7549H72.3008V30.8837C73.3392 30.4468 74.4563 30.2277 75.5829 30.24C77.9855 30.24 79.1681 31.0371 79.1681 33.0318V38.4583H77.6711C77.0274 38.4583 76.7206 38.2263 76.5484 37.7099M76.395 35.0902C76.0972 35.0379 75.7954 35.0116 75.493 35.0116C74.7446 35.0116 74.2955 35.3035 74.2955 35.9771C74.2843 36.113 74.3036 36.2496 74.3521 36.377C74.4006 36.5044 74.477 36.6194 74.5757 36.7134C74.6743 36.8074 74.7928 36.8782 74.9225 36.9204C75.0521 36.9627 75.1895 36.9754 75.3246 36.9576C75.722 36.94 76.1007 36.7837 76.395 36.516V35.0902ZM74.7558 29.8508V29.353L75.261 27.6802H77.9144V28.3388L76.3575 29.8583H74.7483" fill="#1F357A"/>
<path d="M86.6866 37.8147V40.9396H83.9285V30.3822H85.8446C86.26 30.3822 86.5032 30.5357 86.6118 31.2542C86.9377 30.9336 87.3236 30.6803 87.7474 30.5089C88.1712 30.3374 88.6246 30.2512 89.0818 30.255C90.6162 30.255 92.1356 31.2505 92.1356 34.1958C92.1356 37.2795 90.4478 38.3798 88.6551 38.3798C87.9502 38.4214 87.2522 38.2221 86.6754 37.8147M86.6754 32.5753V36.284C87.0057 36.5084 87.3991 36.6211 87.7981 36.6059C88.6439 36.6059 89.3475 36.2316 89.3475 34.4465C89.3475 32.6614 88.6739 32.3171 87.8505 32.3171C87.4491 32.3333 87.0537 32.4207 86.6829 32.5753" fill="#1F357A"/>
<path d="M92.7568 34.4577C92.7568 31.868 94.628 30.255 97.0644 30.255C99.5007 30.255 101.357 31.8792 101.357 34.4577C101.357 37.0363 99.4857 38.5744 97.0644 38.5744C94.643 38.5744 92.7568 37.0288 92.7568 34.4577ZM98.5688 34.4877C98.5688 32.8784 97.9551 32.1412 97.0718 32.1412C96.1886 32.1412 95.5524 32.8897 95.5524 34.4877C95.5524 36.0857 96.1662 36.7706 97.0718 36.7706C97.9775 36.7706 98.5688 36.0819 98.5688 34.4877Z" fill="#1F357A"/>
<path d="M101.937 37.9194V36.1118H102.873C103.407 36.5239 104.069 36.7358 104.744 36.7106C105.492 36.7106 105.938 36.5422 105.938 36.1268C105.938 35.7114 105.664 35.558 104.542 35.4083C102.824 35.1912 101.862 34.5962 101.862 32.9083C101.862 31.1457 103.239 30.2886 105.264 30.2886C106.203 30.2474 107.138 30.4308 107.992 30.8238V32.6015H107.116C106.585 32.2657 105.967 32.0951 105.339 32.1112C104.572 32.1112 104.283 32.3095 104.283 32.6913C104.283 33.073 104.631 33.2002 105.664 33.32C107.536 33.552 108.452 34.1171 108.452 35.8386C108.452 37.5602 107.33 38.5781 104.849 38.5781C103.839 38.6161 102.836 38.3945 101.937 37.9344M107.517 28.279L106.106 29.8732H104.235L102.887 28.279V27.6802H104.384L105.241 28.3239L106.084 27.6802H107.509V28.264" fill="#1F357A"/>
<path d="M108.815 30.3822H109.691V28.3239H112.449V30.3822H113.946V32.1636H112.449V35.8386C112.449 36.5609 112.726 36.7929 113.449 36.7929H113.984V38.3835C113.471 38.5323 112.939 38.6054 112.404 38.6005C110.75 38.6005 109.691 38.0167 109.691 36.254V32.1598H108.815V30.3822Z" fill="#1F357A"/>
<path d="M119.395 37.6911C118.826 38.3199 118.074 38.5631 117.079 38.5631C115.656 38.5631 114.519 37.7548 114.519 36.1568C114.519 34.4577 115.821 33.6456 117.692 33.6456C118.213 33.6423 118.732 33.6937 119.242 33.799V33.2452C119.242 32.5416 118.867 32.2197 117.876 32.2197C117.198 32.2072 116.532 32.3933 115.96 32.7549H115.133V30.8837C116.171 30.4468 117.288 30.2277 118.415 30.24C120.821 30.24 122 31.0371 122 33.0318V38.4583H120.503C119.859 38.4583 119.549 38.2263 119.399 37.7099M119.245 36.531V35.0864C118.946 35.034 118.643 35.0077 118.34 35.0078C117.591 35.0078 117.146 35.2997 117.146 35.9734C117.135 36.0918 117.148 36.2112 117.183 36.3248C117.218 36.4384 117.276 36.5438 117.352 36.6352C117.428 36.7266 117.521 36.8022 117.627 36.8575C117.732 36.9128 117.847 36.9468 117.966 36.9576C118.034 36.9671 118.103 36.9671 118.171 36.9576C118.57 36.9424 118.951 36.7859 119.245 36.516" fill="#1F357A"/>
</svg>

<svg xmlns="http://www.w3.org/2000/svg" width="128" height="64" fill="none"><rect width="128" height="64" fill="#fff" rx="6"/><path fill="#FFCD33" fill-rule="evenodd" d="M6.539 25.064A.539.539 0 0 0 6 25.6a15.007 15.007 0 0 0 14.02 14.412c.336.023.673 0 1.013 0a15.54 15.54 0 0 0 3.245-.415 7.32 7.32 0 0 0 5.756-7.174A5.157 5.157 0 0 0 30 31.7a7.395 7.395 0 0 0-14.464-1.284 7.399 7.399 0 0 0 4.161 4.742 4.046 4.046 0 1 1 2.95 1.276 8.061 8.061 0 0 1-7.355-4.734 8 8 0 0 1-.22-6.037l.045-.12v-.078a.4.4 0 0 0-.4-.4H6.538Z" clip-rule="evenodd"/><path fill="#FFCD33" fill-rule="evenodd" d="M33.694 25.468c.255.959.381 1.947.374 2.938a11.328 11.328 0 0 1-3.952 8.608 13.518 13.518 0 0 1-2.133 1.444 8.029 8.029 0 0 0 2.717-6.036 7.91 7.91 0 0 0-.254-2.01 8.012 8.012 0 0 0-.255-4.816.372.372 0 0 1-.022-.131.408.408 0 0 1 .404-.4h2.578a.55.55 0 0 1 .543.403Z" clip-rule="evenodd"/><path fill="#1F357A" d="M38.44 33.152c0 3.484 2.054 5.445 5.272 5.445a5.831 5.831 0 0 0 3.56-1.044v-1.931h-1.045a3.08 3.08 0 0 1-2.331.935c-1.61 0-2.452-1.044-2.452-3.495 0-2.268.966-3.368 2.59-3.368a2.893 2.893 0 0 1 2.01.688h1.123v-2.028a5.988 5.988 0 0 0-3.219-.749c-3.312 0-5.52 2.051-5.52 5.562m7.436-7.485-1.41 1.534h-1.872l-1.347-1.534v-.61h1.497l.857.584.846-.584h1.425v.584M50.535 35.023c.12 1.366.748 1.721 1.87 1.721.732.023 1.45-.187 2.055-.599h.857v1.643a6.31 6.31 0 0 1-3.342.794c-2.803 0-4.258-1.56-4.258-4.117 0-2.556 1.684-4.218 4.116-4.218 2.511 0 3.799 1.337 3.799 4.065 0 .322-.03.614-.03.703l-5.067.008Zm0-1.441h2.515c-.045-1.242-.46-1.64-1.194-1.64-.63 0-1.168.323-1.321 1.64ZM56.35 37.92v-1.808h.921a2.89 2.89 0 0 0 1.871.599c.749 0 1.194-.169 1.194-.584 0-.416-.273-.569-1.392-.719-1.718-.217-2.683-.812-2.683-2.5 0-1.762 1.38-2.62 3.402-2.62a6.026 6.026 0 0 1 2.732.536V32.6h-.876a3.173 3.173 0 0 0-1.778-.49c-.748 0-1.059.199-1.059.58 0 .382.352.51 1.381.629 1.871.232 2.788.797 2.788 2.519 0 1.721-1.123 2.74-3.6 2.74a5.927 5.927 0 0 1-2.915-.645M66.369 33.376l2.503-2.994h2.302v.663l-2.223 2.526 2.541 4.229v.658h-2.59l-1.87-3.143-.66.722v2.421h-2.761V27.725h1.747c.846 0 1.014.217 1.014 1.441v4.21M76.56 37.691c-.566.629-1.318.872-2.313.872-1.426 0-2.56-.808-2.56-2.406 0-1.7 1.302-2.511 3.174-2.511a7.39 7.39 0 0 1 1.545.153v-.554c0-.703-.374-1.025-1.362-1.025a3.47 3.47 0 0 0-1.916.535H72.3v-1.871a8.231 8.231 0 0 1 3.282-.644c2.403 0 3.585.797 3.585 2.792v5.426h-1.497c-.644 0-.95-.232-1.123-.748m-.153-2.62a5.215 5.215 0 0 0-.902-.078c-.748 0-1.197.291-1.197.965a.913.913 0 0 0 1.029.98 1.703 1.703 0 0 0 1.07-.441V35.09Zm-1.64-5.24v-.497l.506-1.673h2.653v.659l-1.556 1.52h-1.61M86.687 37.815v3.125h-2.758V30.382h1.916c.415 0 .658.154.767.872a3.48 3.48 0 0 1 2.47-.999c1.534 0 3.054.995 3.054 3.94 0 3.084-1.688 4.185-3.48 4.185a3.113 3.113 0 0 1-1.98-.565m0-5.24v3.709c.33.224.723.337 1.122.322.846 0 1.55-.374 1.55-2.16 0-1.785-.674-2.129-1.498-2.129a3.39 3.39 0 0 0-1.167.258M92.757 34.458c0-2.59 1.871-4.203 4.307-4.203 2.437 0 4.293 1.624 4.293 4.203 0 2.578-1.871 4.116-4.293 4.116-2.421 0-4.307-1.545-4.307-4.116Zm5.812.03c0-1.61-.614-2.347-1.497-2.347-.883 0-1.52.749-1.52 2.347 0 1.598.614 2.283 1.52 2.283s1.497-.69 1.497-2.283ZM101.937 37.92v-1.808h.936a2.886 2.886 0 0 0 1.871.599c.748 0 1.194-.169 1.194-.584 0-.416-.274-.569-1.396-.719-1.718-.217-2.68-.812-2.68-2.5 0-1.762 1.377-2.62 3.402-2.62a5.906 5.906 0 0 1 2.728.536V32.6h-.876a3.172 3.172 0 0 0-1.777-.49c-.767 0-1.056.199-1.056.58 0 .382.348.51 1.381.629 1.872.232 2.788.797 2.788 2.519 0 1.721-1.122 2.74-3.603 2.74a5.905 5.905 0 0 1-2.912-.645m5.58-9.655-1.411 1.594h-1.871l-1.348-1.594v-.599h1.497l.857.644.843-.644h1.425v.584M108.815 30.382h.876v-2.058h2.758v2.058h1.497v1.782h-1.497v3.675c0 .722.277.954 1 .954h.535v1.59a5.49 5.49 0 0 1-1.58.217c-1.654 0-2.713-.583-2.713-2.346V32.16h-.876v-1.778ZM119.395 37.691c-.569.629-1.321.872-2.316.872-1.423 0-2.56-.808-2.56-2.406 0-1.7 1.302-2.511 3.173-2.511a7.429 7.429 0 0 1 1.55.153v-.554c0-.703-.375-1.025-1.366-1.025a3.466 3.466 0 0 0-1.916.535h-.827v-1.871a8.228 8.228 0 0 1 3.282-.644c2.406 0 3.585.797 3.585 2.792v5.426h-1.497c-.644 0-.954-.232-1.104-.748m-.154-1.179v-1.445a5.234 5.234 0 0 0-.905-.078c-.749 0-1.194.292-1.194.965a.909.909 0 0 0 .481.885c.105.055.22.089.339.1a.74.74 0 0 0 .205 0c.399-.016.78-.172 1.074-.442"/></svg>
